assets/img/icons/arrow-right.svg

<?xml version="1.0" encoding="UTF-8" standalone="no"?>
<svg width="16px" height="22px" viewBox="0 0 16 22" version="1.1" xmlns="http://www.w3.org/2000/svg" xmlns:xlink="http://www.w3.org/1999/xlink" xmlns:sketch="http://www.bohemiancoding.com/sketch/ns">
    <!-- Generator: Sketch 3.3.2 (12043) - http://www.bohemiancoding.com/sketch -->
    <title>Artboard 1</title>
    <desc>Created with Sketch.</desc>
    <defs></defs>
    <path d="M2.437509,21.812576 C9.062532,18.093813 14.750052,12.250043 14.968803,12.000042 C15.500055,11.43754 15.500055,10.562537 14.968803,10.000035 C14.750052,9.750034 9.062532,3.906263 2.437509,0.1875 C2.000007,-0.0625 1.468755,-0.0625 1.031254,0.1875 C0.593752,0.437501 0.312501,0.875003 0.281251,1.375005 C0.281251,1.437505 -1.42108547e-14,6.125021 -1.42108547e-14,11.000038 C-1.42108547e-14,15.875056 0.281251,20.562572 0.281251,20.625072 C0.312501,21.125074 0.593752,21.593826 1.031254,21.812576 C1.468755,22.062577 2.000007,22.062577 2.437509,21.812576 L2.437509,21.812576 Z" id="Shape" sketch:type="MSShapeGroup"></path>
</svg>

<svg width="16" height="22" viewBox="0 0 16 22" xmlns="http://www.w3.org/2000/svg">
    <title>Arrow Right</title>
    <path d="M2.438 21.813c6.625-3.719 12.313-9.563 12.531-9.813.531-.563.531-1.438 0-2-.219-.25-5.906-6.094-12.531-9.813-.438-.25-.969-.25-1.406 0-.438.25-.719.688-.75 1.188 0 .063-.281 4.75-.281 9.625s.281 9.563.281 9.625c.031.5.313.969.75 1.188.438.25.969.25 1.406 0z" />
</svg>
